X: 33
T:Cooley's (A part only)
M:2/2
L:1/8
R:Reel
Z:Robert Greenway, 16/2/1999
K:EDor
EB{c}BA B2EB|~B2AB dBAG|(3FED {c}AD {c}BD{c}AD|(3FED FA dA{FG}FD|
EB{c}BA B2EB|~B2AB defg|{c'}af{d}ef dBAF|DE~E2 E4||

